X:1
T:Title
%%score { ( 1 3 ) | ( 2 4 ) }
L:1/8
Q:1/4=100
M:4/4
K:E
V:1 treble nm="Grand Piano"
V:3 treble 
V:2 bass 
V:4 bass 
V:1
 G4 F2 E2 | A4 G4 | [CG]2 [CF]2[K:bass] [E,C]2 [B,CF]2 | [G,B,E]4 [F,B,D]4 | [DB]4 [DF]2 F2 | %5
w: J.~H.~Burke * *|||||
 B4 c4 | d2 c2 B3 c | [DB]8 | [EGB]4 [B,EG]2 [A,DF]2 | [G,E]4 [B,DF]4 | [B,EG]2 [EB]2 [Ec]3 [Ec] | %11
w: ||||||
 [Ec]4 [EB]4 | [GB]4 B2 B2 | e6 E2 | [B,EG]2 [G,E]2 [A,DF]3 [G,E] | [G,E]8 |] %16
w: |||||
V:2
 [E,B,E]4 [E,A,D]2 [E,G,]2 | [E,CE]4 [E,B,E]4 | [A,,A,]2 [A,,A,]2 A,,2 A,,2 | B,,4 B,,4 | %4
 [B,,F,]4 [B,,B,]2 [D,B,D]2 | [F,B,D]4 [F,^A,E]4 | [F,B,F]2 [F,^A,E]2 [F,B,D]3 [F,EF] | z4 A4 | %8
 E,4 E,2 B,,2 | C,4 B,,4 | E,2 [E,G,]2 [A,,A,]3 [C,A,] | [E,A,]4 [E,G,]4 | %12
 [E,B,]4 [G,B,E]2 [F,A,D]2 | [E,G,E]6 [C,G,]2 | B,,2 B,,2 B,,3 E, | E,8 |] %16
V:3
 x8 | x8 | x4[K:bass] x4 | x8 | x8 | x8 | x8 | F4 z4 | x8 | x8 | x8 | x8 | x8 | x8 | x8 | x8 |] %16
V:4
 x8 | x8 | x8 | x8 | x8 | x8 | x8 | B,,8 | x8 | x8 | x8 | x8 | x8 | x8 | x8 | x8 |] %16

